logo/convox-icon.svg

<?xml version="1.0" encoding="UTF-8"?>
<svg width="256px" height="249px" viewBox="0 0 256 249" version="1.1" xmlns="http://www.w3.org/2000/svg" preserveAspectRatio="xMidYMid">
    <title>Convox</title>
    <g>
        <path d="M2.35959456,152.51546 L127.286733,218.208705 L253.197288,153.037731 L253.197288,182.933089 L127.20832,248.260888 L2.35959456,182.52448 L2.35959456,152.51546 Z M253.197288,98.6797879 L253.197288,128.566513 L127.20832,193.902945 L2.35959456,128.165818 L2.35959456,99.1761615 L127.2781,163.859395 L253.197288,98.6797879 Z M127.024878,-7.10542736e-15 L256,72.2576062 L191.272885,105.713186 L127.051495,139.474503 L0,72.1878261 L127.024878,-7.10542736e-15 Z M127.111923,30.4961139 L55.1942247,71.3781617 L127.086025,109.439585 L179.189425,82.0340077 L199.978846,71.31723 L127.111923,30.4961139 Z" fill="#4F8CE8"></path>
    </g>
</svg>

<svg viewBox="0 0 256 249" xmlns="http://www.w3.org/2000/svg"><path fill="#4F8CE8" d="M2.35 152.51l124.92 65.69 125.91-65.18v29.89l-125.99 65.32L2.34 182.49v-30.01Zm250.83-53.84v29.88l-125.99 65.33L2.34 128.14V99.15l124.91 64.68 125.91-65.18ZM127-.01l128.97 72.25 -64.73 33.45 -64.23 33.76L-.05 72.16 126.97-.03Zm.08 30.49L55.16 71.36l71.89 38.06 52.1-27.41 20.78-10.72 -72.87-40.83Z"/></svg>
